build/img/icon-facebook.svg

<svg width="80" height="80" viewBox="0 0 80 80" fill="none" xmlns="http://www.w3.org/2000/svg">
<path d="M40 0C17.8966 0 0 17.8966 0 40C0 62.1034 17.8966 80 40 80C62.1034 80 80 62.1034 80 40C80 17.8966 62.1034 0 40 0ZM51.0517 24.4563H45.205C44.2781 24.4563 42.9234 24.9554 42.9234 26.9519V32.3708H50.9804L50.0535 41.5686H42.9234V67.7362H32.0856V41.5686H26.9519V32.3708H32.0856V26.4528C32.0856 22.1747 34.082 15.5437 42.9947 15.5437H50.9804V24.4563H51.0517Z" fill="#2581D0"/>
</svg>

<svg width="80" height="80" fill="none" xmlns="http://www.w3.org/2000/svg"><path d="M40 0C17.897 0 0 17.897 0 40s17.897 40 40 40 40-17.897 40-40S62.103 0 40 0zm11.052 24.456h-5.847c-.927 0-2.282.5-2.282 2.496v5.419h8.057l-.926 9.198h-7.13v26.167H32.085V41.57h-5.134v-9.2h5.134v-5.918c0-4.278 1.996-10.91 10.909-10.91h7.985v8.913h.072z" fill="#2581D0"/></svg>
